src/icons/outline/ai/quality-monitoring.svg

<svg width="24" height="24" viewBox="0 0 24 24" fill="none" xmlns="http://www.w3.org/2000/svg">
<g clip-path="url(#clip0_6362_1052)">
<path d="M20.6895 2.55859C21.9595 2.55859 23 3.62108 23 4.90625V20.6523C22.9999 21.9475 21.9594 23 20.6895 23H5.14941C3.8797 22.9998 2.83998 21.9474 2.83984 20.6523V8.13477C2.89979 8.20551 2.97013 8.27628 3.04004 8.33691C3.34992 8.58973 3.7098 8.73104 4.09961 8.74121V20.6621C4.09961 21.2489 4.56961 21.7244 5.14941 21.7246H20.6797C21.2597 21.7246 21.7295 21.249 21.7295 20.6621V4.91602C21.7294 4.3292 21.2596 3.84375 20.6797 3.84375H8.5C8.43 3.59076 8.31941 3.33716 8.14941 3.13477C7.93949 2.86186 7.6598 2.6695 7.33008 2.56836H20.6797L20.6895 2.55859Z" fill="#3C3B44"/>
<path fill-rule="evenodd" clip-rule="evenodd" d="M13.2998 10.9375C14.2996 10.9375 14.7596 11.5444 14.7598 12.1211V18.5771C14.7598 19.1539 14.3098 19.7617 13.2998 19.7617H12.46C11.46 19.7617 11 19.154 11 18.5771V12.1211C11.0002 11.5444 11.4501 10.9375 12.46 10.9375H13.2998ZM12.46 12.2129C12.3701 12.2129 12.3 12.2223 12.25 12.2324V18.4561C12.3 18.4762 12.3601 18.4863 12.46 18.4863H13.2998C13.3998 18.4863 13.5 18.4561 13.5 18.4561V12.2324C13.46 12.2223 13.3998 12.2129 13.2998 12.2129H12.46Z" fill="#3C3B44"/>
<path fill-rule="evenodd" clip-rule="evenodd" d="M8.25977 14.3984C9.10976 14.3984 9.72949 15.0256 9.72949 15.8857V18.2637C9.72949 19.1339 9.10977 19.751 8.25977 19.751H7.41992C6.57994 19.751 5.95996 19.1339 5.95996 18.2637V15.8857C5.95997 15.0256 6.57995 14.3985 7.41992 14.3984H8.25977ZM7.41992 15.6729C7.27995 15.6729 7.21973 15.734 7.21973 15.8857V18.2637C7.21973 18.4256 7.27995 18.4766 7.41992 18.4766H8.25977C8.40977 18.4766 8.46973 18.4256 8.46973 18.2637V15.8857C8.46972 15.734 8.40976 15.6729 8.25977 15.6729H7.41992Z" fill="#3C3B44"/>
<path fill-rule="evenodd" clip-rule="evenodd" d="M18.3301 5.93848C19.06 5.93865 19.7998 6.57627 19.7998 8.00293V17.6973C19.7998 19.1137 19.06 19.7508 18.3301 19.751H17.5C16.77 19.751 16.0303 19.1139 16.0303 17.6973V8.00293C16.0303 6.57608 16.77 5.93848 17.5 5.93848H18.3301ZM17.5 7.21289C17.45 7.24325 17.29 7.48684 17.29 8.00293V17.6973C17.2901 18.2133 17.45 18.4563 17.5 18.4766H18.3301C18.3902 18.4559 18.54 18.2127 18.54 17.6973V8.00293C18.54 7.48695 18.3901 7.24334 18.3301 7.21289H17.5Z" fill="#3C3B44"/>
<path d="M4.16016 1C4.27998 1.00009 4.38005 1.04057 4.45996 1.11133C4.54986 1.18214 4.60987 1.28331 4.62988 1.39453C4.85988 2.57851 5.78016 3.51006 6.91016 3.75293C7.01997 3.77325 7.11955 3.83386 7.18945 3.9248C7.25945 4.00576 7.2998 4.1172 7.2998 4.22852V4.23828C7.29979 4.34958 7.25944 4.46132 7.18945 4.5625C7.11957 4.64315 7.0198 4.70335 6.91016 4.72363C5.78016 4.95638 4.86988 5.89805 4.62988 7.08203C4.60986 7.19323 4.54986 7.29444 4.45996 7.36523C4.38006 7.43599 4.27002 7.47646 4.16016 7.47656C4.05019 7.47656 3.93982 7.43603 3.83984 7.36523C3.73992 7.29445 3.69991 7.19325 3.66992 7.08203C3.44992 5.89805 2.51965 4.9665 1.38965 4.72363C1.27974 4.70337 1.17934 4.64338 1.10938 4.5625C1.03938 4.47144 1.00001 4.3597 1 4.23828C1 4.11685 1.03937 4.01526 1.10938 3.91406C1.17934 3.83316 1.27972 3.7732 1.38965 3.75293C2.51965 3.52018 3.43992 2.57851 3.66992 1.39453C3.69993 1.28328 3.74989 1.18213 3.83984 1.11133C3.92983 1.04051 4.04018 1 4.16016 1Z" fill="#3C3B44"/>
</g>
<defs>
<clipPath id="clip0_6362_1052">
<rect width="24" height="24" fill="white"/>
</clipPath>
</defs>
</svg>

<svg xmlns="http://www.w3.org/2000/svg" width="24" height="24" fill="none" viewBox="0 0 24 24"><g fill="currentColor" clip-path="url(#a)"><path d="M20.69 2.559c1.27 0 2.31 1.062 2.31 2.347v15.746C23 21.948 21.96 23 20.69 23H5.15c-1.27 0-2.31-1.053-2.31-2.348V8.135c.06.07.13.141.2.202.31.253.67.394 1.06.404v11.921c0 .587.47 1.062 1.05 1.063h15.53c.58 0 1.05-.476 1.05-1.063V4.916c0-.587-.47-1.072-1.05-1.072H8.5a1.9 1.9 0 0 0-.35-.71 1.6 1.6 0 0 0-.82-.566h13.35z"/><path fill-rule="evenodd" d="M13.3 10.938c1 0 1.46.606 1.46 1.183v6.456c0 .577-.45 1.185-1.46 1.185h-.84c-1 0-1.46-.608-1.46-1.185v-6.456c0-.577.45-1.184 1.46-1.184zm-.84 1.275c-.09 0-.16.01-.21.02v6.223c.05.02.11.03.21.03h.84c.1 0 .2-.03.2-.03v-6.224a.8.8 0 0 0-.2-.02zm-4.2 2.185c.85 0 1.47.628 1.47 1.488v2.378c0 .87-.62 1.487-1.47 1.487h-.84c-.84 0-1.46-.617-1.46-1.487v-2.378c0-.86.62-1.487 1.46-1.488zm-.84 1.275c-.14 0-.2.061-.2.213v2.378c0 .162.06.213.2.213h.84c.15 0 .21-.051.21-.213v-2.378c0-.152-.06-.213-.21-.213zm10.91-9.735c.73 0 1.47.638 1.47 2.065v9.694c0 1.417-.74 2.054-1.47 2.054h-.83c-.73 0-1.47-.637-1.47-2.054V8.003c0-1.427.74-2.065 1.47-2.065zm-.83 1.275c-.05.03-.21.274-.21.79v9.694c0 .516.16.76.21.78h.83c.06-.021.21-.264.21-.78V8.003c0-.516-.15-.76-.21-.79z" clip-rule="evenodd"/><path d="M4.16 1c.12 0 .22.04.3.111.09.071.15.172.17.284.23 1.184 1.15 2.115 2.28 2.358.11.02.21.08.28.172.07.08.11.192.11.304v.01a.6.6 0 0 1-.11.324c-.07.08-.17.14-.28.16-1.13.233-2.04 1.175-2.28 2.359a.47.47 0 0 1-.17.283.46.46 0 0 1-.3.112.56.56 0 0 1-.32-.112c-.1-.07-.14-.172-.17-.283a2.99 2.99 0 0 0-2.28-2.358.5.5 0 0 1-.28-.162.53.53 0 0 1-.11-.324.55.55 0 0 1 .11-.324c.07-.08.17-.14.28-.161 1.13-.233 2.05-1.174 2.28-2.358a.5.5 0 0 1 .17-.284c.09-.07.2-.111.32-.111"/></g><defs><clipPath id="a"><path fill="currentColor" d="M0 0h24v24H0z"/></clipPath></defs></svg>
